X: 1
T:R\'il Mh\'or
T:(Callaghan's)
R:reel
Z:id:hn-reel-386
M:C|
K:G
g2gf ~g3f|g2ag fd~d2|g2fg ~a3g|fdcA BG~G2|
g2fg a=f~f2|=fgfd ~e3c|d2de ^fedc|AGFG AGFG||
DG~G2 A2dc|AGFG AGFG|DG~G2 A2dc|AGFG A3F|
DG~G2 A2dc|AGFG ABcA|d2de fd~d2|dedc AG~G2||
